X: 824
T: The New Pair of Shoes
N:"Collected by O'Reilly"
B:O'Neill's 824
Z:Transcribed by Dan G. Petersen, dangp@post6.tele.dk
M:6/8
L:1/8
K:G
d/c/|BGG dGG|BAG G2g/f/|efg dBG|FAA A2d/c/|
BGG dGG|BGG g2g/f/|efg dBG|FAF G2:|
d|gfg afd|gfe dBd|efg dBG|FAA A2d|
gfg afd|gfe dgf|ecA dBG|FAF G2:|


